X: 1
T: The Lochaber Badger
R: reel
M: 4/4
L: 1/8
K: Emin
z | "Em"B2AG AG"C"E2- | ~E2DE GD"Bm7"EG | B2AG AG"Em"E2 | ED"Bm7"GD "Em"E3z |
"Em"B2AG AG"C"E2- | ~E2DE GD"Bm7"EG | B2AG AG"Em"E2 | ED"Bm7"GD "Em"E3 ||
z | "Em"~E2DE GE"Am7"A2- | ~A2AG Ad"Bm7"B2- | ~B2AG AG"Em"E2 | ED"Bm7"GD "Em"E3D |
"Em"~E2DE GE"Am7"A2- | ~A2AG Ad"Bm7"B2- | ~B2AG AG"Em"E2 | ED"Bm7"GD "Em"E3 ||


Tune 5758	Setting 29641

